img/logo/logo.svg

<svg width="48" height="51" viewBox="0 0 48 51" fill="none" xmlns="http://www.w3.org/2000/svg">
<path d="M29.3799 50.0896C29.2906 50.0896 29.246 50.1354 29.246 50.2271V50.3645C29.246 50.4562 29.2906 50.502 29.3799 50.502H47.0484C47.1823 50.502 47.2492 50.4562 47.2492 50.3645V50.2271C47.2492 50.1354 47.1823 50.0896 47.0484 50.0896H44.9737C43.5906 50.0896 42.609 49.8375 42.0289 49.3335C41.4935 48.8294 41.0473 48.0047 40.6904 46.8591C38.4595 39.8022 36.3848 32.7453 34.4663 25.6886C32.5477 18.6317 30.6515 11.529 28.7776 4.38051C28.5098 3.41819 28.5098 2.61638 28.7776 1.97484C29.0453 1.33329 29.6699 1.01252 30.6515 1.01252H34.6671C34.8009 1.01252 34.8678 0.943782 34.8678 0.806308V0.737572C34.8678 0.645922 34.8009 0.600098 34.6671 0.600098H7.89656C7.718 0.600098 7.62883 0.645922 7.62883 0.737572V0.806308C7.62883 0.943782 7.718 1.01252 7.89656 1.01252H12.8491C13.7414 1.01252 14.1876 1.42494 14.1876 2.24978C14.1876 2.61638 14.143 2.98298 14.0537 3.34945C13.9645 3.67023 13.8083 4.15138 13.5853 4.79293C13.1837 5.84689 12.6929 7.10707 12.1129 8.57346C11.5775 9.9939 11.0197 11.4603 10.4397 12.9725C9.85965 14.4847 9.30195 15.951 8.76651 17.3715C8.23118 18.7921 7.76264 20.0294 7.36111 21.0832C6.51342 23.3286 5.64336 25.5282 4.75103 27.6818C3.90323 29.8356 3.1447 31.8976 2.47546 33.868C1.80621 35.7927 1.24851 37.6255 0.802342 39.3669C0.400817 41.0624 0.199997 42.6204 0.199997 44.0409C0.199997 46.4696 0.780079 48.2337 1.94013 49.3335C3.10018 50.4333 4.55021 50.9832 6.29034 50.9832C7.718 50.9832 9.01196 50.5937 10.172 49.8146C11.3321 48.9898 12.4252 47.9818 13.4515 46.7903C14.5222 45.5531 15.5261 44.2471 16.4631 42.8723C17.4447 41.4519 18.4485 40.1459 19.4748 38.9544C20.5009 37.7172 21.5718 36.7092 22.6872 35.9301C23.8473 35.1053 25.0966 34.6929 26.4351 34.6929C28.5767 34.6929 30.2276 35.3344 31.3876 36.6175C32.5477 37.9005 33.3955 39.3669 33.9308 41.0166C34.2878 42.0247 34.5555 42.9869 34.734 43.9034C34.9571 44.8199 35.1802 45.6447 35.4032 46.3779C35.4925 46.7903 35.5148 47.2257 35.4701 47.6839C35.4701 48.1422 35.3363 48.5545 35.0686 48.9211C34.8455 49.2418 34.444 49.5168 33.8639 49.7459C33.3285 49.975 32.5923 50.0896 31.6554 50.0896H29.3799ZM11.5775 22.183C14.1207 22.183 15.9723 22.7787 17.1323 23.9702C18.2924 25.1158 18.8724 26.9945 18.8724 29.6065V36.755C17.8908 37.4881 16.9316 38.2671 15.9946 39.0919C15.0577 39.9168 14.143 40.6729 13.2506 41.3602C12.3583 42.0476 11.4882 42.6203 10.6406 43.0785C9.79275 43.491 8.94506 43.6972 8.09726 43.6972C6.84805 43.6972 5.71026 43.3077 4.68401 42.5288C3.65788 41.7039 3.1447 40.3521 3.1447 38.4733C3.1447 37.3277 3.32326 36.0218 3.68014 34.5554C4.08167 33.0432 4.52795 31.531 5.01864 30.0189C5.55408 28.5067 6.08952 27.0632 6.62497 25.6886C7.16029 24.3138 7.60646 23.1453 7.96346 22.183H11.5775ZM14.1876 5.54903C14.723 4.1743 15.3923 3.28084 16.1953 2.86841C17.0431 2.45599 17.9355 2.22687 18.8724 2.18105V14.141C18.8724 16.8446 18.3147 18.7921 17.1993 19.9835C16.0838 21.1749 14.2099 21.7706 11.5775 21.7706H8.09726C8.76651 19.9835 9.43587 18.1964 10.1051 16.4092C10.7744 14.5764 11.399 12.9038 11.979 11.3915C12.559 9.87934 13.0276 8.59637 13.3844 7.5424C13.7861 6.48844 14.0537 5.82398 14.1876 5.54903ZM30.9192 29.9501C31.0084 30.2709 31.0977 30.6604 31.1868 31.1187C31.2761 31.5768 31.3207 32.0121 31.3207 32.4246C31.3654 32.837 31.343 33.2265 31.2538 33.5931C31.2092 33.9139 31.0753 34.143 30.8522 34.2805C30.763 34.3263 30.6069 34.3492 30.3838 34.3492C29.9376 34.3492 29.4022 34.2575 28.7776 34.0742C28.1975 33.8451 27.3944 33.7306 26.3682 33.7306C25.1189 33.7306 23.9142 34.0055 22.7541 34.5554C21.5941 35.0595 20.434 35.701 19.274 36.48V29.6065C19.274 26.9486 19.8094 25.047 20.8802 23.9014C21.9957 22.7558 23.8696 22.183 26.502 22.183H28.8445C29.2013 23.4661 29.536 24.7721 29.8483 26.1009C30.2053 27.384 30.5622 28.6671 30.9192 29.9501ZM26.502 21.7706C23.9588 21.7706 22.1072 21.1519 20.9472 19.9148C19.8317 18.6775 19.274 16.7529 19.274 14.141V2.18105C20.8357 2.22687 21.9957 2.57055 22.7541 3.2121C23.5126 3.85352 24.0481 4.72419 24.3604 5.82398C24.8511 7.56532 25.4759 9.83351 26.2344 12.6288C26.9928 15.424 27.8182 18.4713 28.7105 21.7706H26.502Z" fill="#212529"/>
</svg>

<svg width="48" height="51" viewBox="0 0 48 51" fill="none" xmlns="http://www.w3.org/2000/svg"><path d="M29.38 50.09c-.09 0-.134.045-.134.137v.138c0 .091.045.137.134.137h17.668c.134 0 .201-.046.201-.138v-.137c0-.092-.067-.137-.2-.137h-2.075c-1.383 0-2.365-.253-2.945-.757-.536-.504-.982-1.328-1.339-2.474a541.7 541.7 0 01-6.224-21.17A2426.683 2426.683 0 0128.778 4.38c-.268-.963-.268-1.765 0-2.406.267-.642.892-.962 1.873-.962h4.016c.134 0 .2-.07.2-.207V.738c0-.092-.066-.138-.2-.138H7.897c-.179 0-.268.046-.268.138v.068c0 .138.089.207.268.207h4.952c.892 0 1.339.412 1.339 1.237 0 .366-.045.733-.134 1.1-.09.32-.246.801-.469 1.443a329.056 329.056 0 01-1.472 3.78 814.32 814.32 0 01-1.673 4.4 811.569 811.569 0 00-1.673 4.399 1098.03 1098.03 0 01-1.406 3.711 222.976 222.976 0 01-2.61 6.599 138.82 138.82 0 00-2.276 6.186 68.762 68.762 0 00-1.673 5.499C.401 41.062.2 42.62.2 44.04c0 2.429.58 4.193 1.74 5.293 1.16 1.1 2.61 1.65 4.35 1.65 1.428 0 2.722-.39 3.882-1.17 1.16-.824 2.253-1.832 3.28-3.024a42.91 42.91 0 003.011-3.918 46.538 46.538 0 013.012-3.918c1.026-1.237 2.097-2.245 3.212-3.024 1.16-.825 2.41-1.237 3.748-1.237 2.142 0 3.793.641 4.953 1.925a12.016 12.016 0 012.543 4.399c.357 1.008.625 1.97.803 2.886.223.917.446 1.742.67 2.475.088.412.11.848.066 1.306 0 .458-.134.87-.401 1.237-.224.32-.625.596-1.205.825-.535.229-1.272.344-2.209.344H29.38zM11.578 22.183c2.543 0 4.394.596 5.554 1.787 1.16 1.146 1.74 3.024 1.74 5.637v7.148a46.15 46.15 0 00-2.877 2.337 54.351 54.351 0 01-2.744 2.268 19.508 19.508 0 01-2.61 1.718c-.848.413-1.696.62-2.544.62-1.249 0-2.387-.39-3.413-1.17-1.026-.824-1.54-2.176-1.54-4.055 0-1.145.18-2.451.536-3.918a87.188 87.188 0 011.34-4.535 145.25 145.25 0 011.606-4.33c.535-1.375.981-2.544 1.338-3.506h3.615zm2.61-16.634c.535-1.375 1.204-2.268 2.007-2.68a6.82 6.82 0 012.677-.688v11.96c0 2.704-.557 4.651-1.673 5.842-1.115 1.192-2.99 1.788-5.622 1.788h-3.48l2.008-5.362c.67-1.833 1.294-3.505 1.874-5.017.58-1.513 1.049-2.796 1.405-3.85.402-1.054.67-1.718.804-1.993zM30.919 29.95c.09.32.179.71.268 1.169.09.458.134.893.134 1.306.044.412.022.802-.067 1.168-.045.32-.179.55-.402.688-.089.045-.245.068-.468.068-.446 0-.982-.091-1.606-.275-.58-.229-1.384-.343-2.41-.343-1.25 0-2.454.274-3.614.824a21.945 21.945 0 00-3.48 1.925v-6.873c0-2.658.535-4.56 1.606-5.706 1.116-1.145 2.99-1.718 5.622-1.718h2.343c.356 1.283.691 2.59 1.003 3.918l1.071 3.85zm-4.417-8.18c-2.543 0-4.395-.618-5.555-1.855-1.115-1.238-1.673-3.162-1.673-5.774V2.181c1.562.046 2.722.39 3.48 1.031.759.642 1.294 1.512 1.606 2.612.491 1.741 1.116 4.01 1.874 6.805.759 2.795 1.584 5.842 2.476 9.142h-2.208z" fill="#212529"/></svg>
